assets/images/speed.svg

<svg xmlns="http://www.w3.org/2000/svg" viewBox="0 0 64 50" width="64px" height="50px">
  <g id="Page-1" stroke="none" stroke-width="1" fill="none" fill-rule="evenodd">
    <g id="car" fill="#E06035" fill-rule="nonzero">
      <path d="M33.25,24.0736842 C32.6973684,23.9855263 32.1421053,23.925 31.5881579,23.925 C27.9513158,23.925 24.3171053,25.5710526 22.3671053,28.9473684 C19.4605263,33.9815789 21.2815789,40.6592105 26.3157895,43.5644737 C27.9736842,44.5223684 29.7934211,44.7368421 31.5789474,44.7368421 C35.2157895,44.7368421 38.8407895,42.85 40.7894737,39.4736842 C42.9894737,35.6631579 42.4355263,31.2907895 39.9013158,28.0118421 L43.4210526,14.4736842 L33.25,24.0736842 Z M36.1355263,37.0815789 C35.1986842,38.7052632 33.4578947,39.4736845 31.5789474,39.4736845 C30.6513158,39.4736845 29.7605263,39.4763158 28.9486842,39.0065789 C26.4355263,37.5565789 25.5723684,34.3315789 27.0223684,31.8197368 C27.9592105,30.1960526 29.7092105,29.1868421 31.5894737,29.1868421 C32.5157895,29.1868421 33.3973684,29.425 34.2092105,29.8934211 C36.7223684,31.3447368 37.5855263,34.5684211 36.1355263,37.0815789 Z M31.5789474,0 C14.1381579,0 0,15.0434211 0,32.8947368 C0,39.4210526 1.89605263,44.9197368 5.14605263,50 L18.4210526,50 L18.4210526,44.7368421 L7.89473684,44.7368421 C5.99078947,40.9486842 5.26315789,37.1986842 5.26315789,32.8947368 C5.26315789,18.0421053 17.0684211,5.26315789 31.5789474,5.26315789 C46.0894737,5.26315789 57.8947368,18.0421053 57.8947368,32.8947368 C57.8947368,37.1986842 57.1671053,40.9486842 55.2631579,44.7368421 L44.7368421,44.7368421 L44.7368421,50 L57.8947368,50 C61.1447368,44.9197368 63.1578947,39.4210526 63.1578947,32.8947368 C63.1578947,15.0434211 49.0197368,0 31.5789474,0 Z" id="Shape"></path>
    </g>
  </g>
</svg>

<svg xmlns="http://www.w3.org/2000/svg" width="64" height="50"><path fill="#E06035" fill-rule="nonzero" d="M33.25 24.074a10.57 10.57 0 0 0-1.662-.149c-3.637 0-7.27 1.646-9.22 5.022-2.907 5.035-1.086 11.712 3.948 14.617 1.658.958 3.477 1.173 5.263 1.173 3.637 0 7.262-1.887 9.21-5.263 2.2-3.81 1.647-8.183-.888-11.462l3.52-13.538-10.171 9.6Zm2.886 13.008c-.937 1.623-2.678 2.392-4.557 2.392-.928 0-1.818.002-2.63-.467a5.267 5.267 0 0 1-1.927-7.187 5.285 5.285 0 0 1 4.567-2.633c.927 0 1.808.238 2.62.706a5.269 5.269 0 0 1 1.927 7.189ZM31.579 0C14.139 0 0 15.043 0 32.895 0 39.42 1.896 44.92 5.146 50h13.275v-5.263H7.895c-1.904-3.788-2.632-7.538-2.632-11.842 0-14.853 11.805-27.632 26.316-27.632 14.51 0 26.316 12.78 26.316 27.632 0 4.304-.728 8.054-2.632 11.842H44.737V50h13.158c3.25-5.08 5.263-10.579 5.263-17.105C63.158 15.043 49.02 0 31.578 0Z"/></svg>
